frontend/public/svg/interface/forward.svg

<svg width="91" height="101" viewBox="0 0 91 101" fill="none" xmlns="http://www.w3.org/2000/svg">
<g clip-path="url(#clip0)">
<path d="M3.73948 99.4465C4.72294 100.135 5.89529 100.504 7.09608 100.501C8.01746 100.495 8.92737 100.297 9.76761 99.9185C12.1067 98.7836 14.2819 97.3372 16.234 95.6202C22.3443 90.5896 29.5721 84.5956 36.8472 78.2857C41.5629 74.1959 47.0891 69.3181 52.322 64.1503C54.8812 61.5218 57.2869 58.7479 59.5267 55.8424C60.0878 55.144 60.6488 54.448 61.21 53.7544C62.3955 52.2964 63.4523 50.4415 62.2991 47.7332C62.2458 47.6076 62.155 47.5014 62.0391 47.4293C61.9233 47.3571 61.788 47.3224 61.6516 47.3299C59.8801 47.4315 58.9056 46.2551 57.7764 44.8975L57.4339 44.4876C47.4465 32.692 38.7022 23.4958 29.9159 15.5473C25.6503 11.6892 21.1639 7.8091 16.5778 4.01256C14.4865 2.28067 11.5487 0.322157 7.35625 0.597318C3.77311 0.827161 2.73657 1.07258 2.64528 5.09056C2.60513 6.85614 2.60388 8.64824 2.60323 10.3821C2.60323 11.831 2.60317 13.2799 2.57857 14.7289L2.51376 18.9372C2.19779 39.1094 1.87154 59.9691 1.51218 80.4844C1.4429 84.4208 1.27131 88.6356 0.986422 93.3684C0.88176 94.5331 1.08033 95.705 1.56277 96.77C2.0452 97.8351 2.79505 98.757 3.73948 99.4465ZM12.0752 13.4671L15.1741 16.4006C20.8785 21.8003 26.7769 27.383 32.5518 32.9024C38.0152 38.1246 44.4655 43.2744 52.8569 49.1097C53.4098 49.4947 53.9617 49.8812 54.5124 50.2692C52.4181 51.7423 50.322 53.2036 48.2242 54.653C42.9588 58.3078 37.5142 62.0862 32.3253 66.0084C27.1979 69.8853 22.2893 73.9201 17.0913 78.1925C15.1288 79.8059 13.1416 81.44 11.1079 83.0916C10.5899 59.784 10.3347 36.4724 10.3224 11.9223L10.3283 11.9274C10.9816 12.481 11.5455 12.962 12.0752 13.4632V13.4671Z" fill="black"/>
<path d="M81.032 88.7741C81.3558 91.1599 81.6963 93.6266 81.9631 96.0493C82.1962 98.1632 83.4199 98.6177 84.4054 98.6261H84.4365C85.8163 98.6261 86.6204 97.7592 86.8276 96.0493C87.1443 93.4324 87.5088 90.7727 87.8636 88.1998C88.6192 82.6798 89.4001 76.972 89.7679 71.3205C90.2172 64.4052 90.3357 57.4706 90.473 49.4424C90.5377 45.605 90.6057 41.6376 90.7151 37.2551V37.222L90.585 31.7894C90.438 25.4115 90.2561 17.4745 90.0158 9.53763C89.9297 7.50636 89.6494 5.48801 89.1793 3.51007C89.0194 2.69813 88.57 1.97179 87.9154 1.46604C87.2602 0.9603 86.4437 0.709509 85.6181 0.760365H85.5994C84.7803 0.722276 83.9742 0.974731 83.3228 1.47308C82.6721 1.97143 82.2182 2.68367 82.0415 3.48415C81.6853 4.69523 81.4542 5.93929 81.3499 7.19721C81.2418 8.74782 81.124 10.2977 81.0068 11.8477C80.6552 16.5163 80.2913 21.3437 80.1774 26.1062L80.0226 32.3864C79.6924 45.6724 79.3518 59.411 79.5189 72.9235C79.6982 78.2332 80.2033 83.5266 81.032 88.7741Z" fill="black"/>
</g>
<defs>
<clipPath id="clip0">
<rect width="90" height="101" fill="white" transform="translate(0.777344)"/>
</clipPath>
</defs>
</svg>

<svg xmlns="http://www.w3.org/2000/svg" width="91" height="101" fill="none" viewBox="0 0 91 101"><g fill="#000" clip-path="url(#a)"><path d="M3.74 99.447a5.83 5.83 0 0 0 3.356 1.054 6.6 6.6 0 0 0 2.672-.583 29 29 0 0 0 6.466-4.298c6.11-5.03 13.338-11.024 20.613-17.334 4.716-4.09 10.242-8.968 15.475-14.136a95 95 0 0 0 7.205-8.308q.84-1.047 1.683-2.088c1.185-1.458 2.242-3.312 1.09-6.02a.66.66 0 0 0-.648-.404c-1.772.102-2.746-1.075-3.876-2.432l-.342-.41c-9.987-11.796-18.732-20.992-27.518-28.94A405 405 0 0 0 16.578 4.012C14.487 2.28 11.548.323 7.356.597c-3.583.23-4.62.476-4.71 4.494-.04 1.765-.042 3.557-.043 5.291 0 1.449 0 2.898-.024 4.347l-.065 4.208C2.198 39.11 1.872 59.97 1.512 80.484a302 302 0 0 1-.526 12.884 6.77 6.77 0 0 0 2.753 6.079m8.335-85.98 3.1 2.934c5.703 5.4 11.602 10.982 17.377 16.501 5.463 5.223 11.914 10.372 20.305 16.208q.83.577 1.655 1.16a913 913 0 0 1-6.288 4.383c-5.265 3.655-10.71 7.433-15.899 11.355-5.127 3.877-10.036 7.912-15.234 12.185-1.962 1.613-3.95 3.247-5.983 4.899-.518-23.308-.773-46.62-.786-71.17l.006.005a43 43 0 0 1 1.747 1.536zm68.958 75.307c.324 2.386.664 4.853.931 7.275.233 2.114 1.457 2.569 2.442 2.577h.031c1.38 0 2.184-.867 2.392-2.577a480 480 0 0 1 1.036-7.85c.755-5.52 1.536-11.227 1.904-16.879.45-6.915.568-13.85.705-21.878.065-3.837.133-7.804.242-12.187v-.033l-.13-5.433c-.147-6.378-.329-14.315-.57-22.251a32 32 0 0 0-.836-6.028A3.42 3.42 0 0 0 85.62.76h-.02a3.48 3.48 0 0 0-3.558 2.724 18.6 18.6 0 0 0-.691 3.713c-.108 1.55-.226 3.1-.343 4.65-.352 4.67-.716 9.497-.83 14.26l-.154 6.28c-.33 13.285-.671 27.024-.504 40.537.18 5.31.684 10.603 1.513 15.85"/></g><defs><clipPath id="a"><path fill="#fff" d="M.777 0h90v101h-90z"/></clipPath></defs></svg>
